X:1
T: Irish Wedding
C:
R:Jig
Q:180
K:C
M:6/8
L:1/16
|:G2|c4G2 G2E2G2|A4G2 G2A2B2|c4c2 d4d2|e4c2 c2d2e2|
f4f2 e4e2|d4d2 B2G2B2|c2B2A2 E2F2G2|A4G2 G4:|
ef|g4g2 e4e2|g4g2 e4e2|g2g2g2 e2e2e2|f4d2 d2e2f2|
g4e2 f4d2|e4c2 d4B2|c2B2A2 E2F2G2|A4G2 G4ef|
g2c'2g2 e2c2e2|g2c'2g2 e2c2e2|g2c'2g2 e2c2e2|f4d2 d2e2f2|
g4e2 f4d2|e4c2 d4B2|c'4A2 G2E2G2|A4c2 c4||
